X: 21161
T: Kathleen Mythen's
R: jig
M: 6/8
K: Gmajor
|:GDD EDD|GBe dBA|GDD EDD|GBe d2 B|
GDD EDD|GBe dBA|Gdg edB|AEF G3:|
|:bgg dgg|deg age|bgg dgg|efg a3|
bgg dgg|deg edB|Gdg edB|AEF G2 A:|
|:BcB BAG|BGG DGG|BcB BAG|edB A2 G|
BcB BAG|BGG DGG|gfe dBG|AGF G3:|

